icons/pediatrics_fill.svg

<svg width="48" height="48" viewBox="0 0 48 48" fill="none" xmlns="http://www.w3.org/2000/svg">
<path fill-rule="evenodd" clip-rule="evenodd" d="M9 6C7.34315 6 6 7.34315 6 9V39C6 40.6569 7.34315 42 9 42H39C40.6569 42 42 40.6569 42 39V9C42 7.34315 40.6569 6 39 6H9ZM28.0555 14.2778C28.0555 16.6403 26.1403 18.5555 23.7777 18.5555C21.4152 18.5555 19.5 16.6403 19.5 14.2778C19.5 11.9152 21.4152 10 23.7777 10C26.1403 10 28.0555 11.9152 28.0555 14.2778ZM27.6667 23.3098C29.028 23.1157 30.4573 22.822 32.0357 22.4315C33.108 22.1663 33.7622 21.082 33.497 20.0098C33.2317 18.9375 32.1475 18.2833 31.0752 18.5486C28.1306 19.277 25.9341 19.5983 23.7852 19.5901C21.6305 19.5819 19.4266 19.2423 16.4585 18.5433C15.3833 18.2901 14.3065 18.9564 14.0533 20.0316C13.8 21.1067 14.4664 22.1836 15.5415 22.4368C17.1094 22.806 18.532 23.0938 19.8889 23.2896V24.7776H27.6667V23.3098ZM19.8889 26.3332V27.8422C19.8889 28.3348 20.3326 29.5999 21.6938 30.2061C21.8496 30.2754 22.0247 30.3624 22.1821 30.4405L22.2747 30.4864C22.468 30.582 22.6552 30.6724 22.8445 30.7526C23.2392 30.9198 23.547 30.9997 23.7778 30.9997C24.0085 30.9997 24.3164 30.9198 24.7111 30.7526C24.9004 30.6724 25.0875 30.582 25.2809 30.4864L25.3735 30.4405C25.5309 30.3624 25.706 30.2754 25.8618 30.2061C27.223 29.5999 27.6667 28.3348 27.6667 27.8422V26.3332H19.8889ZM17.2248 34.1027C17.2248 32.3596 17.8893 31.0388 19.096 29.9884C19.4675 30.6164 20.0851 31.2481 21.0045 31.666C20.8665 31.7965 20.7344 31.9478 20.6095 32.1337C20.2204 32.7129 19.8861 33.4285 19.8861 34.1027C19.8861 34.719 20.1389 35.2492 20.3305 35.6508L20.3444 35.6802C20.5559 36.124 20.6895 36.4226 20.6895 36.7384C20.6895 37.4482 20.0795 37.9997 19.3589 37.9997C18.6872 37.9997 18.1558 37.5524 17.76 36.6866C17.3735 35.8411 17.2248 34.7979 17.2248 34.1027ZM26.551 31.6656C27.4704 31.2477 28.088 30.616 28.4595 29.988C29.6662 31.0384 30.3307 32.3592 30.3307 34.1022C30.3307 34.7975 30.182 35.8407 29.7955 36.6862C29.3997 37.552 28.8682 37.9993 28.1966 37.9993C27.476 37.9993 26.8659 37.4478 26.8659 36.7379C26.8659 36.4222 26.9996 36.1235 27.211 35.6797L27.225 35.6504C27.4165 35.2487 27.6694 34.7185 27.6694 34.1022C27.6694 33.428 27.335 32.7125 26.946 32.1332C26.8211 31.9473 26.689 31.7961 26.551 31.6656Z" fill="black"/>
</svg>

<svg
  xmlns="http://www.w3.org/2000/svg"
  width="24"
  height="24"
  viewBox="0 0 24 24"
  fill="none"
  stroke="currentColor"
  stroke-width="2"
  stroke-linecap="round"
  stroke-linejoin="round"
>
  <path
    fill-rule="evenodd"
    d="M9 6a3 3 0 0 0-3 3v30a3 3 0 0 0 3 3h30a3 3 0 0 0 3-3V9a3 3 0 0 0-3-3zm19.056 8.278a4.278 4.278 0 1 1-8.556 0 4.278 4.278 0 0 1 8.555 0m-.39 9.032c1.362-.194 2.791-.488 4.37-.878a2 2 0 1 0-.96-3.883c-2.945.728-5.142 1.05-7.29 1.041-2.155-.008-4.36-.348-7.328-1.047a2 2 0 1 0-.916 3.894c1.567.369 2.99.657 4.347.853v1.488h7.778zm-7.777 3.023v1.51c0 .492.444 1.757 1.805 2.363.156.07.33.156.488.235l.093.045c.193.096.38.186.57.267.394.167.702.247.933.247.23 0 .538-.08.933-.247.19-.08.377-.171.57-.267l.093-.046c.157-.078.332-.165.488-.234 1.361-.606 1.805-1.871 1.805-2.364v-1.509zm-2.664 7.77c0-1.743.664-3.064 1.871-4.115.372.628.99 1.26 1.909 1.678-.139.13-.27.282-.395.468-.39.579-.724 1.294-.724 1.969 0 .616.253 1.146.445 1.548l.013.03c.212.443.345.742.345 1.057 0 .71-.61 1.262-1.33 1.262-.672 0-1.203-.448-1.599-1.313-.387-.846-.535-1.89-.535-2.584m9.326-2.437c.92-.418 1.537-1.05 1.909-1.678 1.206 1.05 1.87 2.371 1.87 4.114 0 .696-.148 1.739-.534 2.584-.396.866-.928 1.313-1.6 1.313-.72 0-1.33-.551-1.33-1.261 0-.316.134-.614.345-1.058l.014-.03c.191-.401.444-.931.444-1.548 0-.674-.334-1.39-.723-1.969a2.7 2.7 0 0 0-.395-.467"
    clip-rule="evenodd"
  />
</svg>
